packages/components/src/components/icon/underlying/ic-underlying-OTC_HSI.svg

<?xml version="1.0" encoding="UTF-8"?>
<svg width="32px" height="32px" viewBox="0 0 32 32" version="1.1" xmlns="http://www.w3.org/2000/svg" xmlns:xlink="http://www.w3.org/1999/xlink">
    <!-- Generator: Sketch 64 (93537) - https://sketch.com -->
    <title>assets/otc/ic-otchongkong</title>
    <desc>Created with Sketch.</desc>
    <g id="assets/otc/ic-otchongkong" stroke="none" stroke-width="1" fill="none" fill-rule="evenodd">
        <g id="assets/otc/ic-otc">
            <g id="assets/flags/normal/ic-hongkong-hkd" transform="translate(4.000000, 8.000000)">
                <g id="Group" transform="translate(-0.000000, 0.000000)">
                    <rect id="bg" fill="#F0371D" fill-rule="nonzero" x="0" y="0" width="24" height="16" rx="2"></rect>
                    <path d="M15.4771943,10.705096 C15.9502003,12.1608591 15.4440494,13.6300361 14.3466745,13.9865948 C13.9403506,12.7360584 13.2374362,12.8263373 13.0420102,12.224878 C12.8022457,11.4869586 12.7413838,11.299645 13.0619946,10.0327566 C13.3826054,8.76586823 12.0926472,8.89063141 12.633768,8.71481061 C13.7311429,8.35825188 15.0041882,9.24933302 15.4771943,10.705096 Z M11.6086734,9.23531382 C12.2868885,10.1687966 11.8328125,11.6548939 10.5944666,12.554605 C9.35612064,13.454316 7.802441,13.4269385 7.12422602,12.4934557 C8.18799586,11.7205815 7.88492298,11.079968 8.39655486,10.7082457 C9.02426652,10.2521864 9.18360496,10.1364203 10.4875616,10.0498492 C11.7915182,9.96327819 11.2742424,8.77500896 11.6086734,9.23531382 Z M9.24227901,11.2835774 C9.08748576,11.3960413 9.05363469,11.6133341 9.16667052,11.7689146 C9.27970635,11.9244951 9.49682472,11.959448 9.65161796,11.8469841 C9.80641121,11.7345202 9.84026228,11.5172274 9.72722645,11.3616469 C9.61419062,11.2060664 9.39707226,11.1711135 9.24227901,11.2835774 Z M14.0739702,11.1628366 C13.8910744,11.2222631 13.7907389,11.4179539 13.8498647,11.5999242 C13.9089904,11.7818946 14.1051877,11.8812361 14.2880835,11.8218096 C14.4709793,11.7623832 14.5713148,11.5666924 14.512189,11.384722 C14.4530633,11.2027516 14.256866,11.1034102 14.0739702,11.1628366 Z M6.31383303,5.14192426 C7.37760287,5.91479829 7.8932079,5.42859838 8.40483979,5.80032069 C9.03255144,6.25637992 9.19188988,6.37214607 9.67716863,7.58553061 C10.1624473,8.79891516 11.1327115,7.9397612 10.7982805,8.40006607 C10.1200655,9.33354891 8.56638587,9.36092639 7.3280399,8.46121538 C6.08969393,7.56150436 5.63561804,6.07540711 6.31383303,5.14192426 Z M15.2284592,5.46864709 C16.759139,5.46864709 18.0000001,6.40402592 18.0000001,7.55787417 C16.6851083,7.55787417 16.5537562,8.2542832 15.9213444,8.2542832 C15.1454501,8.2542832 14.948497,8.2542832 13.8426887,7.55787417 C12.7368804,6.86146515 12.4569182,8.12684226 12.4569182,7.55787417 C12.4569182,6.40402592 13.6977794,5.46864709 15.2284592,5.46864709 Z M7.63472413,6.85891842 C7.52168829,7.0144989 7.55553937,7.23179178 7.71033261,7.34425565 C7.86512586,7.45671953 8.08224423,7.42176662 8.19528006,7.26618615 C8.30831589,7.11060567 8.27446481,6.8933128 8.11967157,6.78084892 C7.96487832,6.66838504 7.74775996,6.70333795 7.63472413,6.85891842 Z M13.0354311,2.09156718 C12.6291072,3.34210362 13.2508415,3.68222913 13.0554155,4.28368847 C12.815651,5.02160777 12.7547891,5.20892134 11.7507511,6.04540531 C10.7467132,6.88188928 11.8636453,7.53917216 11.3225245,7.36335135 C10.2251496,7.00679263 9.71899869,5.53761559 10.1920047,4.08185259 C10.6650108,2.62608959 11.9380561,1.73500846 13.0354311,2.09156718 Z M15.5749018,6.59629985 C15.3835668,6.59629985 15.2284592,6.75219632 15.2284592,6.94450436 C15.2284592,7.1368124 15.3835668,7.29270887 15.5749018,7.29270887 C15.7662367,7.29270887 15.9213444,7.1368124 15.9213444,6.94450436 C15.9213444,6.75219632 15.7662367,6.59629985 15.5749018,6.59629985 Z M11.3711233,4.09915429 C11.3119975,4.28112466 11.412333,4.47681545 11.5952288,4.53624191 C11.7781246,4.59566836 11.9743218,4.49632688 12.0334477,4.31435651 C12.0925735,4.13238614 11.9922379,3.93669534 11.8093421,3.87726889 C11.6264463,3.81784244 11.430249,3.91718391 11.3711233,4.09915429 Z" id="emblem" fill="#FFFFFF" fill-rule="nonzero"></path>
                    <rect id="border" stroke-opacity="0.04" stroke="#000000" fill-rule="nonzero" x="0.50000005" y="0.499999983" width="23" height="15" rx="1"></rect>
                </g>
            </g>
        </g>
    </g>
</svg>

<svg width="32" height="32" xmlns="http://www.w3.org/2000/svg"><g transform="translate(4 8)" fill-rule="nonzero" fill="none"><rect fill="#F0371D" width="24" height="16" rx="2"/><path d="M15.477 10.705c.473 1.456-.033 2.925-1.13 3.282-.407-1.25-1.11-1.16-1.305-1.762-.24-.738-.3-.925.02-2.192.32-1.267-.97-1.142-.428-1.318 1.097-.357 2.37.534 2.843 1.99zm-3.868-1.47c.678.934.224 2.42-1.015 3.32-1.238.9-2.792.872-3.47-.062 1.064-.772.76-1.413 1.273-1.785.627-.456.787-.572 2.09-.658 1.305-.087.787-1.275 1.122-.815zm-2.367 2.049a.347.347 0 00-.075.485c.113.155.33.19.485.078a.347.347 0 00.075-.485.347.347 0 00-.485-.078zm4.832-.121a.347.347 0 00-.224.437.347.347 0 00.662-.215.347.347 0 00-.438-.222zm-7.76-6.021c1.064.773 1.58.287 2.09.658.629.456.788.572 1.273 1.786.485 1.213 1.456.354 1.121.814-.678.934-2.232.96-3.47.061-1.238-.9-1.692-2.386-1.014-3.32zm8.914.327c1.531 0 2.772.935 2.772 2.089-1.315 0-1.446.696-2.079.696-.776 0-.973 0-2.078-.696-1.106-.697-1.386.569-1.386 0 0-1.154 1.24-2.09 2.771-2.09zm-7.593 1.39a.347.347 0 00.075.485.347.347 0 00.485-.078.347.347 0 00-.075-.485.347.347 0 00-.485.078zm5.4-4.767c-.406 1.25.216 1.59.02 2.192-.24.738-.3.925-1.304 1.761-1.004.837.113 1.494-.428 1.318-1.098-.356-1.604-1.825-1.131-3.281.473-1.456 1.746-2.347 2.843-1.99zm2.54 4.504a.347.347 0 00-.347.349.347.347 0 10.693 0 .347.347 0 00-.346-.349zM11.37 4.1a.347.347 0 00.224.437.347.347 0 10.214-.659.347.347 0 00-.438.222z" fill="#FFF"/><rect stroke-opacity=".04" stroke="#000" x=".5" y=".5" width="23" height="15" rx="1"/></g></svg>
